X: 114
T: No_4_Song_of_Elder_Brother_After_He_Had_Created_the_Wind_and_Clouds.krn
N: Derived from No_4_Song_of_Elder_Brother_After_He_Had_Created_the_Wind_and_Clouds.krn
%%abc-version 2.0
%%abcx-abcm2ps-target-version 5.9.1 (29 Sep 2008)
%%abc-creator hum2abc beta
%%abcx-conversion-date 2019/03/15 08:37:56
%%humdrum-veritas 1706674967
%%humdrum-veritas-data 3424211198
%%linebreak <none>
%%barnumbers 0
L: 1/4
M: 3/4
K: E clef=bass
E, [I:setbarnb 1]| 
CCC/C/ ||  
[M:2/4]B,B, ||  
[M:3/4]B,3/G,/B, ||  
[M:2/4]G,2- | 
G,B, ]|:  
[M:3/4]CCC ||  
[M:2/4]B,3//G,//G, ||  
[M:3/4]G,2G, | 
F,2F, | 
E,3/C,/E, | 
C,2z | 
E,E,F,/E,/ ||  
[M:2/4]{/E,}E,2 | 
C,2 ||  
[M:3/4]E,E,/E,/E, | 
E,E,C, | 
E,E,/E,/E, | 
E,2B, :|]  



